X:191
T:Ray's Reel
C:Muriel A Johnstone
R:reel
N:Suggested tune for The Provost Wind
B:RSCDS "A Second Book of Graded Scottish Country Dances" (Graded 2) p.39 #19
Z:2011 John Chambers <jc:trillian.mit.edu>
M:2/4
L:1/16
K:D
A2 |\
"D"d3f "A"e3f | "D"d2AG "D7"FGA2 | "G"B2GB "D"A2F2 | "Em"GFED "A"E2A2 |\
"D"d3f "F#7"e3f | "Bm"d2AG "D7"FGAF | "G"GABG "A7"Agec | "D"d4 d2 :|
g2|\
"D"f3g a2A2 | "G"B4 "D"A2f2 | "Em"g3a "E7"b2d2 | "A"c2A2 "A7"A2g2 |\
"D"f3g a2A2 | "G"B4 "D"A2f2 | "Em"BcdB "A7"Agec | "D"d4 "A7"d2 |]
g2 |\
"D"f3g a2A2 | "G"B4 "D"A2f2 | "Em"gfga "E7"Bged | "A"c2A2 "A7"A2fg |\
"D"agfa "A7"gfeg | "D"fedf "A"e2A2 | "Em"BcdB | "A7"Agec | "D"d4 d2 |]
